src/img/first-screen/stamp.svg

<?xml version="1.0" encoding="UTF-8" standalone="no"?>
<svg
   width="196"
   height="196"
   viewBox="0 0 196 196"
   fill="none"
   version="1.1"
   id="svg1780"
   sodipodi:docname="stamp.svg"
   inkscape:version="1.1 (c68e22c387, 2021-05-23)"
   xmlns:inkscape="http://www.inkscape.org/namespaces/inkscape"
   xmlns:sodipodi="http://sodipodi.sourceforge.net/DTD/sodipodi-0.dtd"
   xmlns="http://www.w3.org/2000/svg"
   xmlns:svg="http://www.w3.org/2000/svg">
  <defs
     id="defs1784" />
  <sodipodi:namedview
     id="namedview1782"
     pagecolor="#ffffff"
     bordercolor="#666666"
     borderopacity="1.0"
     inkscape:pageshadow="2"
     inkscape:pageopacity="0.0"
     inkscape:pagecheckerboard="0"
     showgrid="false"
     inkscape:zoom="3.744898"
     inkscape:cx="97.866485"
     inkscape:cy="119.49591"
     inkscape:window-width="1280"
     inkscape:window-height="961"
     inkscape:window-x="-8"
     inkscape:window-y="-8"
     inkscape:window-maximized="1"
     inkscape:current-layer="svg1780" />
  <path
     d="M176.55 60.0562C174.328 58.7563 172.478 56.908 171.176 54.6881C169.873 52.4682 169.163 49.9511 169.112 47.378C169.036 43.802 167.688 40.3702 165.31 37.6979C162.933 35.0256 159.681 33.2876 156.138 32.7955C153.588 32.4441 151.171 31.4431 149.119 29.8884C147.067 28.3338 145.449 26.2777 144.42 23.9176C142.986 20.6363 140.427 17.9745 137.205 16.4111C133.983 14.8478 130.309 14.4854 126.844 15.3892C124.347 16.0403 121.725 16.0388 119.23 15.385C116.734 14.7312 114.448 13.4469 112.591 11.6555C110.009 9.17271 106.626 7.69245 103.051 7.48078C99.4751 7.26911 95.9411 8.33993 93.0843 10.5007C91.0324 12.0525 88.6173 13.0529 86.0691 13.4065C83.5209 13.7601 80.9246 13.4551 78.5277 12.5207C75.1938 11.207 71.4998 11.1299 68.114 12.3034C64.7282 13.4768 61.8742 15.8233 60.0682 18.9184C58.7658 21.137 56.9166 22.9849 54.697 24.2856C52.4774 25.5864 49.9615 26.2966 47.3893 26.3486C43.8084 26.4172 40.3696 27.762 37.6921 30.1408C35.0147 32.5197 33.2746 35.7764 32.7851 39.3244C32.4367 41.8789 31.4374 44.301 29.8832 46.3581C28.3291 48.4152 26.2722 50.0382 23.9101 51.0714C20.6283 52.5075 17.9665 55.0673 16.4033 58.2905C14.8401 61.5137 14.4781 65.1889 15.3823 68.6551C16.0348 71.1515 16.0341 73.7738 15.3802 76.2699C14.7263 78.7659 13.4412 81.0518 11.6486 82.9076C9.1671 85.4904 7.68828 88.8737 7.47794 92.4492C7.2676 96.0247 8.33955 99.558 10.5011 102.414C12.0504 104.456 13.0526 106.86 13.4128 109.398C13.7731 111.935 13.4794 114.523 12.5596 116.916C11.2515 120.252 11.175 123.945 12.3439 127.332C13.5128 130.72 15.8505 133.58 18.9377 135.399C21.1582 136.699 23.0076 138.548 24.3086 140.768C25.6096 142.988 26.3187 145.505 26.3679 148.078C26.4392 151.659 27.7848 155.097 30.1632 157.775C32.5416 160.453 35.7969 162.196 39.3444 162.689C41.8944 163.038 44.3121 164.036 46.3652 165.588C48.4182 167.14 50.0378 169.194 51.0683 171.552C52.5029 174.833 55.0613 177.495 58.2833 179.058C61.5053 180.622 65.1794 180.984 68.6447 180.08C71.1412 179.429 73.7632 179.431 76.259 180.085C78.7547 180.738 81.0406 182.023 82.8973 183.814C85.4809 186.294 88.8645 187.772 92.4398 187.981C96.0152 188.19 99.5478 187.117 102.403 184.954C103.666 183.998 105.074 183.249 106.574 182.736C109.957 181.562 113.647 181.634 116.982 182.94C120.317 184.245 124.009 184.317 127.393 183.143C130.777 181.969 133.63 179.625 135.441 176.535C136.743 174.316 138.592 172.468 140.812 171.167C143.032 169.867 145.547 169.156 148.12 169.104C151.701 169.039 155.142 167.695 157.82 165.316C160.498 162.936 162.237 159.678 162.724 156.129C163.078 153.579 164.08 151.163 165.634 149.112C167.189 147.06 169.243 145.441 171.602 144.411C174.881 142.971 177.54 140.411 179.102 137.188C180.665 133.966 181.029 130.293 180.129 126.827C179.481 124.336 179.484 121.72 180.139 119.23C180.793 116.74 182.077 114.461 183.867 112.611C186.349 110.029 187.83 106.646 188.041 103.07C188.253 99.4943 187.182 95.9604 185.021 93.1036C183.468 91.0521 182.468 88.6358 182.116 86.0866C181.765 83.5374 182.075 80.9406 183.016 78.5455C184.318 75.1987 184.382 71.4968 183.196 68.1069C182.011 64.7171 179.654 61.862 176.55 60.0562ZM122.726 169.742C108.484 174.679 93.0982 175.282 78.5136 171.475C63.929 167.668 50.801 159.621 40.7895 148.353C30.778 137.084 24.3328 123.1 22.2688 108.169C20.2049 93.2377 22.615 78.0296 29.1942 64.468C35.7735 50.9063 46.2266 39.6002 59.2315 31.9793C72.2364 24.3584 87.2091 20.7651 102.256 21.6536C117.303 22.5422 131.749 27.8728 143.767 36.9713C155.784 46.0698 164.834 58.5276 169.771 72.7693C176.368 91.8682 175.12 112.804 166.3 130.983C157.481 149.163 141.81 163.102 122.726 169.742Z"
     fill="#F6A6BF"
     id="path1764" />
  <circle
     cx="97.7281"
     cy="97.7339"
     r="71.3082"
     transform="rotate(-5.54496 97.7281 97.7339)"
     fill="#F6A6BF"
     id="circle1766" />
  <path
     d="M79.7049 44.1844L84.3984 50.2871L91.8268 47.7056L87.2991 54.0588L91.9926 60.1615L84.5008 57.9853L79.9731 64.3384L79.8707 56.6403L72.3789 54.464L79.8073 51.8826L79.7049 44.1844Z"
     fill="white"
     id="path1768" />
  <path
     d="m 111.729,148.819 -0.164,-7.697 -7.513,-2.322 7.411,-2.435 -0.164,-7.697 4.745,6.193 7.412,-2.435 -4.479,6.262 4.745,6.192 -7.513,-2.322 z"
     fill="#ffffff"
     id="path1770" />
  <path
     d="M100.46 42.2363L103.74 46.5022L108.933 44.6977L105.768 49.1387L109.049 53.4046L103.812 51.8834L100.647 56.3244L100.575 50.9432L95.3386 49.422L100.531 47.6175L100.46 42.2363Z"
     fill="white"
     id="path1772" />
  <path
     d="M62.2643 55.448L65.5451 59.714L70.7378 57.9095L67.5728 62.3505L70.8537 66.6164L65.6168 65.0952L62.4518 69.5362L62.3802 64.155L57.1432 62.6337L62.3359 60.8292L62.2643 55.448Z"
     fill="white"
     id="path1774" />
  <path
     d="m 92.4129,151.63 -0.117,-5.381 -5.253,-1.621 5.1808,-1.704 -0.117,-5.38 3.3186,4.327 5.1804,-1.704 -3.1293,4.379 3.3186,4.327 -5.2527,-1.621 z"
     fill="#ffffff"
     id="path1776" />
  <path
     d="m 130.504,138.328 -0.117,-5.381 -5.252,-1.621 5.18,-1.704 -0.117,-5.38 3.319,4.327 5.18,-1.704 -3.129,4.379 3.318,4.327 -5.252,-1.622 z"
     fill="#ffffff"
     id="path1778" />
</svg>

<svg xmlns="http://www.w3.org/2000/svg" fill="none" version="1.1" viewBox="0 0 196 196"><path d="M176.55 60.056a15.026 15.026 0 0 1-7.438-12.678 15.046 15.046 0 0 0-12.974-14.583 15.018 15.018 0 0 1-11.718-8.877 15.038 15.038 0 0 0-17.576-8.529 15.054 15.054 0 0 1-14.253-3.733A15.048 15.048 0 0 0 93.084 10.5a15.062 15.062 0 0 1-14.556 2.02 15.003 15.003 0 0 0-18.46 6.398 15.054 15.054 0 0 1-12.679 7.43 15.034 15.034 0 0 0-14.604 12.976 15.04 15.04 0 0 1-8.875 11.747 15.048 15.048 0 0 0-8.528 17.584 15.04 15.04 0 0 1-3.733 14.253 15.048 15.048 0 0 0-1.148 19.506 15.054 15.054 0 0 1 2.06 14.502 15.068 15.068 0 0 0 6.377 18.483 15.024 15.024 0 0 1 7.43 12.68 15.054 15.054 0 0 0 12.976 14.61 15.02 15.02 0 0 1 11.724 8.86 15.04 15.04 0 0 0 17.577 8.522 15.054 15.054 0 0 1 14.252 3.734 15.049 15.049 0 0 0 19.506 1.14 14.9 14.9 0 0 1 4.17-2.218 15.028 15.028 0 0 1 10.41.204 15.042 15.042 0 0 0 18.458-6.406 15.049 15.049 0 0 1 12.68-7.43 15.018 15.018 0 0 0 14.603-12.976 15.045 15.045 0 0 1 8.878-11.718c3.279-1.44 5.938-4 7.5-7.223a15.064 15.064 0 0 0 1.027-10.359 15.009 15.009 0 0 1 3.738-14.217A15.048 15.048 0 0 0 185.02 93.1a15.02 15.02 0 0 1-2.005-14.558 15.067 15.067 0 0 0-6.466-18.49Zm-53.824 109.686a76.215 76.215 0 0 1-81.936-21.389 76.217 76.217 0 0 1-11.596-83.885 76.213 76.213 0 0 1 140.577 8.301 76.296 76.296 0 0 1-47.045 96.973Z" fill="#F6A6BF"/><circle fill="#F6A6BF" cx="97.728" cy="97.734" r="71.308" transform="rotate(-5.545 97.728 97.734)"/><path d="m79.705 44.184 4.693 6.103 7.429-2.581-4.528 6.353 4.694 6.093L84.5 57.98l-4.523 6.353-.102-7.698-7.492-2.176 7.428-2.581-.1-7.7Zm32.024 104.635-.164-7.7-7.513-2.32 7.41-2.44-.163-7.698 4.745 6.193 7.412-2.435-4.479 6.262 4.745 6.192-7.513-2.324zm-11.27-106.59 3.28 4.266 5.194-1.804-3.165 4.44 3.28 4.267-5.236-1.522-3.165 4.44-.072-5.38-5.236-1.52 5.192-1.805-.071-5.382ZM62.265 55.45l3.281 4.266 5.193-1.804-3.165 4.44 3.28 4.266-5.236-1.52-3.165 4.44-.072-5.381-5.237-1.521 5.193-1.805-.072-5.381Zm30.149 96.182-.117-5.381-5.253-1.621 5.18-1.704-.116-5.38 3.318 4.327 5.18-1.704-3.13 4.379 3.32 4.327-5.253-1.621zm38.09-13.302-.116-5.381-5.252-1.621 5.18-1.704-.117-5.38 3.319 4.327 5.18-1.712-3.129 4.38 3.311 4.328-5.252-1.622z" fill="#fff"/></svg>
